X:350
T: Floating Bottle
S: "First Collection of Traditional Irish Music" (M.Mulvihill)
Z: B.Black
L: 1/8
M: 4/4
R: reel
K: D
dedB ABde|fd (3dcd edBA|FAdB AF (3FEF|ED (3EFG DFAc|
dedB ABde|fd (3dcd edBA|FAdB AF (3FEF|ED (3EFG D2FA :|
d2 fd adfd|(3efg fe dB (3BAB|d2 fd adfd|(3efg fe d2 cd|
d2 fd adfd|(3efg fe dB (3BAB|defg a3 b|agec dgfe :|
